public/logos/18_mag/CIWL.svg

<?xml version="1.0" encoding="UTF-8" standalone="no"?>
<!DOCTYPE svg PUBLIC "-//W3C//DTD SVG 1.0//EN" "http://www.w3.org/TR/2001/REC-SVG-20010904/DTD/svg10.dtd">
<!-- Created with Inkscape (http://www.inkscape.org/) by Marsupilami -->
<svg
   xmlns:svg="http://www.w3.org/2000/svg"
   xmlns="http://www.w3.org/2000/svg"
   version="1.0"
   width="698"
   height="768"
   viewBox="-1.36323714 -1.36323714 48.16771228 53.03560228"
   id="svg2574">
  <defs
     id="defs2576" />
  <path
     d="M 23.95999,0 C 24.75,0 25.53875,0 26.32874,0 C 26.59375,0.12 27.08875,0.01125 27.375,0.11 C 28.02249,2.235 28.72499,4.305 29.35749,6.445 C 21.34999,4.735 15.14999,8.03875 11.29125,11.8975 C 7.56874,15.62 4.55874,22.77625 6.71999,30.29375 C 8.46749,36.375 12.78499,40.94625 18.34125,43.0725 C 21.3825,44.23625 25.40249,44.6325 28.97249,43.89875 C 32.3175,43.21125 34.97499,41.7875 37.23499,39.9875 C 39.88624,39.88625 42.705,39.95125 45.44124,39.9325 C 45.44124,39.95125 45.44124,39.97 45.44124,39.9875 C 41.21125,45.46375 35.13374,49.84875 25.83249,50.2875 C 22.755,50.43375 19.73249,49.82125 17.185,48.96625 C 12.28875,47.3225 8.44,44.48625 5.45374,40.75875 C 2.47625,37.04375 0.39749,32.3125 0,26.32875 C 0,25.53875 0,24.74875 0,23.96 C 0.04375,23.9475 0.06374,23.91375 0.05499,23.85 C 0.51124,16.54375 3.45999,11.24625 7.38124,7.325 C 11.31624,3.39125 16.69,0.515 23.95999,0 M 18.61624,13.66 C 19.65375,18.14875 20.63374,22.695 21.64499,27.21 C 23.03499,23.9725 24.26999,20.58 25.61124,17.295 C 26.45749,19.7725 27.24374,22.36625 28.08999,25.00625 C 28.21125,25.3825 28.41999,25.85875 28.41999,26.1075 C 28.42125,26.4575 28.09875,27.00125 27.92499,27.485 C 26.76624,30.69625 25.66249,33.8525 24.565,37.01375 C 22.21499,37.01375 19.86499,37.01375 17.515,37.01375 C 15.85499,29.2 13.92749,21.36 12.33749,13.66 C 14.43,13.66 16.52375,13.66 18.61624,13.66 M 25.22624,13.66 C 27.35624,13.66 29.48624,13.66 31.61499,13.66 C 33.50624,19.53625 35.32249,25.48625 37.17874,31.39625 C 39.91374,31.39625 42.64999,31.39625 45.38499,31.39625 C 45.38499,33.26875 45.38499,35.14125 45.38499,37.01375 C 41.07124,37.01375 36.75624,37.01375 32.44124,37.01375 C 30.05499,29.2475 27.47874,21.3775 25.22624,13.66 M 36.18749,13.66 C 38.29874,13.66 40.40999,13.66 42.52124,13.66 C 41.24374,19.415 39.95749,25.15875 38.66624,30.9 C 38.33624,30.9 38.00499,30.9 37.67499,30.9 C 36.86124,28.53375 36.14749,26.00125 35.36124,23.46375 C 35.11249,22.66125 34.62749,21.7925 34.58999,21.04125 C 34.56249,20.4725 34.84499,19.84875 34.97624,19.2225 C 35.34749,17.45 35.68374,15.605 36.13249,13.825 C 36.12749,13.7475 36.12374,13.66875 36.18749,13.66"
     id="path2560"
     style="fill:#013882;fill-opacity:1;fill-rule:evenodd;stroke:none" />
</svg>
<!-- version: 20090314, original size: 45.441238 50.309128, border: 3% -->

<svg xmlns="http://www.w3.org/2000/svg" width="698" height="768" viewBox="-1.363 -1.363 48.168 53.036"><path d="M23.96 0h2.369c.265.12.76.011 1.046.11.647 2.125 1.35 4.195 1.982 6.335-8.007-1.71-14.207 1.594-18.066 5.453C7.57 15.62 4.56 22.776 6.72 30.294c1.747 6.081 6.065 10.652 11.621 12.778 3.041 1.164 7.061 1.56 10.631.827 3.346-.688 6.003-2.111 8.263-3.912 2.651-.1 5.47-.036 8.206-.055v.055c-4.23 5.477-10.307 9.862-19.609 10.3-3.077.147-6.1-.466-8.647-1.32-4.896-1.645-8.745-4.48-11.731-8.208C2.476 37.044.397 32.313 0 26.329V23.96c.044-.012.064-.046.055-.11.456-7.306 3.405-12.604 7.326-16.525C11.316 3.391 16.69.515 23.96 0m-5.344 13.66c1.038 4.489 2.018 9.035 3.029 13.55 1.39-3.238 2.625-6.63 3.966-9.915.846 2.477 1.633 5.071 2.479 7.711.121.377.33.853.33 1.102.001.35-.321.893-.495 1.377a827 827 0 0 0-3.36 9.529h-7.05c-1.66-7.814-3.588-15.654-5.178-23.354zm6.61 0h6.388c1.891 5.876 3.707 11.826 5.564 17.736h8.206v5.618H32.441c-2.386-7.767-4.962-15.637-7.215-23.354m10.961 0h6.334a6336 6336 0 0 1-3.855 17.24h-.991c-.814-2.366-1.528-4.899-2.314-7.436-.249-.803-.734-1.671-.771-2.423-.028-.569.255-1.192.386-1.819.371-1.772.708-3.617 1.156-5.397-.005-.077-.008-.156.055-.165" style="fill:#013882;fill-opacity:1;fill-rule:evenodd;stroke:none"/></svg>
